src/resources/whatsapp-icon.svg

<svg fill="none" height="40" viewBox="0 0 40 40" width="40" xmlns="http://www.w3.org/2000/svg"><circle cx="20" cy="20" fill="#48c95f" r="20"/><path d="m27.9268 12.0625c-1.9756-1.9688-4.6097-3.0625-7.3902-3.0625-5.7805 0-10.4634 4.6667-10.4634 10.4271 0 1.8229.5122 3.6458 1.3902 5.1771l-1.4634 5.3958 5.561-1.4583c1.5366.8021 3.2195 1.2395 4.9756 1.2395 5.7805 0 10.4634-4.6666 10.4634-10.427-.0732-2.6979-1.0976-5.323-3.0732-7.2917zm-2.3414 11.0833c-.2195.5834-1.2439 1.1667-1.7561 1.2396-.4391.0729-1.0244.0729-1.6098-.0729-.3658-.1458-.878-.2917-1.4634-.5833-2.6341-1.0938-4.3171-3.7188-4.4634-3.9375-.1464-.1459-1.0976-1.3855-1.0976-2.698s.6586-1.8958.8781-2.1875c.2195-.2916.5122-.2916.7317-.2916h.5122c.1463 0 .3658-.0729.5853.4375.2196.5104.7317 1.8229.8049 1.8958.0732.1459.0732.2917 0 .4375s-.1463.2917-.2927.4375c-.1463.1458-.2927.3646-.3658.4375-.1464.1458-.2927.2917-.1464.5104.1464.2917.6586 1.0938 1.4635 1.8229 1.0243.875 1.8292 1.1667 2.1219 1.3126.2927.1458.439.0729.5854-.073.1463-.1458.6585-.7291.8048-1.0208.1464-.2917.3659-.2187.5854-.1458s1.5366.7291 1.7561.875c.2927.1458.439.2187.5122.2916.0732.2188.0732.7292-.1463 1.3125z" fill="#fff"/></svg>

<svg width="40" height="40" viewBox="0 0 40 40" fill="none" xmlns="http://www.w3.org/2000/svg">
<circle cx="20" cy="20" r="20" fill="#48C95F"/>
<path d="M27.9268 12.0625C25.9512 10.0937 23.3171 9 20.5366 9C14.7561 9 10.0732 13.6667 10.0732 19.4271C10.0732 21.25 10.5854 23.0729 11.4634 24.6042L10 30L15.561 28.5417C17.0976 29.3438 18.7805 29.7812 20.5366 29.7812C26.3171 29.7812 31 25.1146 31 19.3542C30.9268 16.6563 29.9024 14.0312 27.9268 12.0625ZM25.5854 23.1458C25.3659 23.7292 24.3415 24.3125 23.8293 24.3854C23.3902 24.4583 22.8049 24.4583 22.2195 24.3125C21.8537 24.1667 21.3415 24.0208 20.7561 23.7292C18.122 22.6354 16.439 20.0104 16.2927 19.7917C16.1463 19.6458 15.1951 18.4062 15.1951 17.0937C15.1951 15.7812 15.8537 15.1979 16.0732 14.9062C16.2927 14.6146 16.5854 14.6146 16.8049 14.6146C16.9512 14.6146 17.1707 14.6146 17.3171 14.6146C17.4634 14.6146 17.6829 14.5417 17.9024 15.0521C18.122 15.5625 18.6341 16.875 18.7073 16.9479C18.7805 17.0938 18.7805 17.2396 18.7073 17.3854C18.6341 17.5312 18.561 17.6771 18.4146 17.8229C18.2683 17.9687 18.1219 18.1875 18.0488 18.2604C17.9024 18.4062 17.7561 18.5521 17.9024 18.7708C18.0488 19.0625 18.561 19.8646 19.3659 20.5937C20.3902 21.4687 21.1951 21.7604 21.4878 21.9063C21.7805 22.0521 21.9268 21.9792 22.0732 21.8333C22.2195 21.6875 22.7317 21.1042 22.878 20.8125C23.0244 20.5208 23.2439 20.5938 23.4634 20.6667C23.6829 20.7396 25 21.3958 25.2195 21.5417C25.5122 21.6875 25.6585 21.7604 25.7317 21.8333C25.8049 22.0521 25.8049 22.5625 25.5854 23.1458Z" fill="white"/>
</svg>
